X: 41031
T: Trip To Kinvara, The
R: reel
M: 4/4
K: Dmajor
|:fgfe ~d3B|ADFD ADFD|~f3e dfbf|afgf edBc|
dB{c}BA BA^GB|ADFD ADFA|b~a3 f~d3|egfe [1 d3e:|2 dABc||
|:d2fd adfa|b2gb agfe|d2fd adfd|(3cBA eA fAec|
d2fd adfa|b2gb ~a3f|~g3e ~f3a|gfed [1 cABc:|2 cdeg||

